src/images/bg-color/bg-bottom-mobile.svg

<svg xmlns="http://www.w3.org/2000/svg" fill="none" viewBox="0 0 320 1570" preserveAspectRatio="none" x="0" y="0">
<path fill="#FEF3E4" d="M14.8505 105.127c3.4215 21.3-9.50403 19.577-16.39448 16.053v261.548c.00001 51.113-3.27597 938.752-.00012 953.152 1.988122 8.74 19.2457-36.25 16.3945-46.04-2.8512-9.79-8.55364-45.58 3.9204-49.49 12.4741-3.92 14.2561-12.93 20.6713-24.28 6.4153-11.35 22.8098-33.67 62.7269-16.44 39.917 17.22 66.291 1.56 85.18-14.1 37.422-31.03 100.893.15 118.532 26.73 9.256 13.95-15.995 82.9 0 89.55 7.991 3.32 15.119 64.39 15.119-3.32V100.82c-.238 2.871-1.996 7.752-7.128 4.307-15.111-8.4572-8.91-34.3251-3.92-46.2018 2.732-11.3546 3.635-37.9793-14.613-53.64092C273.878-13.1349 210.727 22.5121 174.091 22.5121c-40.025-.0001-59.448-10.18-83.3268-19.57692C66.8853-6.46177 47.9959 9.59125 40.5115 22.5121 33.027 35.4329 32.6707 40.5229 21.2658 46.396c-22.45337 9.0054-10.6921 32.1063-6.4153 58.731Z"/></svg>

<svg width="320" height="1337" viewBox="0 0 320 1337" fill="none" xmlns="http://www.w3.org/2000/svg">
<path d="M14.8505 105.127C18.272 126.427 5.34647 124.704 -1.54398 121.18V382.728C-1.54397 433.841 -4.81995 1321.48 -1.5441 1335.88C0.444022 1344.62 17.7016 1299.63 14.8504 1289.84C11.9992 1280.05 6.29676 1244.26 18.7708 1240.35C31.2449 1236.43 33.0269 1227.42 39.4421 1216.07C45.8574 1204.72 62.2519 1182.4 102.169 1199.63C142.086 1216.85 168.46 1201.19 187.349 1185.53C224.771 1154.5 288.242 1185.68 305.881 1212.26C315.137 1226.21 289.886 1295.16 305.881 1301.81C313.872 1305.13 321 1366.2 321 1298.49L321 100.82C320.762 103.691 319.004 108.572 313.872 105.127C298.761 96.6698 304.962 70.8019 309.952 58.9252C312.684 47.5706 313.587 20.9459 295.339 5.28428C273.878 -13.1349 210.727 22.5121 174.091 22.5121C134.066 22.512 114.643 12.3321 90.7642 2.93518C66.8853 -6.46177 47.9959 9.59125 40.5115 22.5121C33.027 35.4329 32.6707 40.5229 21.2658 46.396C-1.18757 55.4014 10.5737 78.5023 14.8505 105.127Z" fill="#FEF3E4"/>
</svg>
